public/image/setting.svg

<svg fill="none" height="26" viewBox="0 0 26 26" width="26" xmlns="http://www.w3.org/2000/svg"><path d="m22.2875 14.225c.05-.4.0875-.8.0875-1.225s-.0375-.825-.0875-1.225l2.6375-2.0625c.2375-.1875.3-.525.15-.8l-2.5-4.325c-.0736-.12897-.1909-.22748-.3306-.27787s-.2928-.04938-.4319.00287l-3.1125 1.25c-.65-.5-1.35-.9125-2.1125-1.225l-.475-3.3125c-.0206-.147076-.0943-.281552-.207-.378208-.1128-.096655-.2569-.14885-.4055-.146795h-5c-.3125 0-.57496.225001-.61246.525003l-.475 3.3125c-.7625.3125-1.4625.7375-2.1125 1.225l-3.1125-1.25c-.07247-.02459-.14846-.03725-.225-.0375-.2125 0-.425.1125-.5375.3125l-2.499997 4.325c-.1625.275-.087499.6125.149997.8l2.6375 2.0625c-.05.4-.0875.8125-.0875 1.225s.0375.825.0875 1.225l-2.6375 2.0625c-.237496.1875-.299997.525-.149997.8l2.499997 4.325c.07369.129.1909.2275.33063.2779.13972.0504.29283.0493.43187-.0029l3.1125-1.25c.65.5 1.35.9125 2.1125 1.225l.475 3.3125c.0375.3.29996.525.61246.525h5c.3125 0 .575-.225.6125-.525l.475-3.3125c.7625-.3125 1.4625-.7375 2.1125-1.225l3.1125 1.25c.075.025.15.0375.225.0375.2125 0 .425-.1125.5375-.3125l2.5-4.325c.15-.275.0875-.6125-.15-.8zm-2.475-2.1375c.05.3875.0625.65.0625.9125s-.025.5375-.0625.9125l-.175 1.4125 1.1125.875 1.35 1.05-.875 1.5125-1.5875-.6375-1.3-.525-1.125.85c-.5375.4-1.05.7-1.5625.9125l-1.325.5375-.2 1.4125-.25 1.6875h-1.75l-.2375-1.6875-.2-1.4125-1.325-.5375c-.53746-.225-1.03746-.5125-1.53746-.8875l-1.1375-.875-1.325.5375-1.5875.6375-.875-1.5125 1.35-1.05 1.1125-.875-.175-1.4125c-.0375-.3875-.0625-.675-.0625-.925s.025-.5375.0625-.9125l.175-1.4125-1.1125-.875-1.35-1.05.875-1.5125 1.5875.6375 1.3.525 1.125-.85c.5375-.4 1.05-.7 1.56246-.9125l1.325-.5375.2-1.4125.25-1.6875h1.7375l.2375 1.6875.2 1.4125 1.325.5375c.5375.225 1.0375.5125 1.5375.8875l1.1375.875 1.325-.5375 1.5875-.6375.875 1.5125-1.3375 1.0625-1.1125.875zm-6.8125-4.0875c-2.7625 0-4.99996 2.2375-4.99996 5s2.23746 5 4.99996 5 5-2.2375 5-5-2.2375-5-5-5zm0 7.5c-1.375 0-2.5-1.125-2.5-2.5s1.125-2.5 2.5-2.5 2.5 1.125 2.5 2.5-1.125 2.5-2.5 2.5z" fill="#ccb280"/></svg>

<svg width="26" height="26" viewBox="0 0 26 26" fill="none" xmlns="http://www.w3.org/2000/svg">
    <path d="M22.2875 14.225C22.3375 13.825 22.375 13.425 22.375 13C22.375 12.575 22.3375 12.175 22.2875 11.775L24.925 9.7125C25.1625 9.525 25.225 9.1875 25.075 8.9125L22.575 4.5875C22.5014 4.45853 22.3841 4.36002 22.2444 4.30963C22.1047 4.25924 21.9516 4.26025 21.8125 4.3125L18.7 5.5625C18.05 5.0625 17.35 4.65 16.5875 4.3375L16.1125 1.025C16.0919 0.877924 16.0182 0.743448 15.9055 0.646792C15.7927 0.550137 15.6486 0.497942 15.5 0.499997H10.5C10.1875 0.499997 9.92504 0.724998 9.88754 1.025L9.41254 4.3375C8.65004 4.65 7.95004 5.075 7.30004 5.5625L4.18754 4.3125C4.11507 4.28791 4.03908 4.27525 3.96254 4.275C3.75004 4.275 3.53754 4.3875 3.42504 4.5875L0.925043 8.9125C0.762543 9.1875 0.837544 9.525 1.07504 9.7125L3.71254 11.775C3.66254 12.175 3.62504 12.5875 3.62504 13C3.62504 13.4125 3.66254 13.825 3.71254 14.225L1.07504 16.2875C0.837544 16.475 0.775043 16.8125 0.925043 17.0875L3.42504 21.4125C3.49873 21.5415 3.61594 21.64 3.75567 21.6904C3.89539 21.7408 4.0485 21.7397 4.18754 21.6875L7.30004 20.4375C7.95004 20.9375 8.65004 21.35 9.41254 21.6625L9.88754 24.975C9.92504 25.275 10.1875 25.5 10.5 25.5H15.5C15.8125 25.5 16.075 25.275 16.1125 24.975L16.5875 21.6625C17.35 21.35 18.05 20.925 18.7 20.4375L21.8125 21.6875C21.8875 21.7125 21.9625 21.725 22.0375 21.725C22.25 21.725 22.4625 21.6125 22.575 21.4125L25.075 17.0875C25.225 16.8125 25.1625 16.475 24.925 16.2875L22.2875 14.225ZM19.8125 12.0875C19.8625 12.475 19.875 12.7375 19.875 13C19.875 13.2625 19.85 13.5375 19.8125 13.9125L19.6375 15.325L20.75 16.2L22.1 17.25L21.225 18.7625L19.6375 18.125L18.3375 17.6L17.2125 18.45C16.675 18.85 16.1625 19.15 15.65 19.3625L14.325 19.9L14.125 21.3125L13.875 23H12.125L11.8875 21.3125L11.6875 19.9L10.3625 19.3625C9.82504 19.1375 9.32504 18.85 8.82504 18.475L7.68754 17.6L6.36254 18.1375L4.77504 18.775L3.90004 17.2625L5.25004 16.2125L6.36254 15.3375L6.18754 13.925C6.15004 13.5375 6.12504 13.25 6.12504 13C6.12504 12.75 6.15004 12.4625 6.18754 12.0875L6.36254 10.675L5.25004 9.8L3.90004 8.75L4.77504 7.2375L6.36254 7.875L7.66254 8.4L8.78754 7.55C9.32504 7.15 9.83754 6.85 10.35 6.6375L11.675 6.1L11.875 4.6875L12.125 3H13.8625L14.1 4.6875L14.3 6.1L15.625 6.6375C16.1625 6.8625 16.6625 7.15 17.1625 7.525L18.3 8.4L19.625 7.8625L21.2125 7.225L22.0875 8.7375L20.75 9.8L19.6375 10.675L19.8125 12.0875ZM13 8C10.2375 8 8.00004 10.2375 8.00004 13C8.00004 15.7625 10.2375 18 13 18C15.7625 18 18 15.7625 18 13C18 10.2375 15.7625 8 13 8ZM13 15.5C11.625 15.5 10.5 14.375 10.5 13C10.5 11.625 11.625 10.5 13 10.5C14.375 10.5 15.5 11.625 15.5 13C15.5 14.375 14.375 15.5 13 15.5Z" fill="#CCB280"/>
</svg>
